common/src/main/resources/icons/actions/showChangesOnly.svg

<svg xmlns="http://www.w3.org/2000/svg" width="16" height="16" fill="#9575CD" data-big="true" viewBox="0 0 24 24"><path d="M2 6v2h12V6zm0 4v2h12v-2zm18.04.13c-.14 0-.28.06-.39.17l-1 1 2.05 2.05 1-1c.22-.21.22-.56 0-.77l-1.28-1.28a.53.53 0 0 0-.38-.17m-1.97 1.75L12 17.94V20h2.06l6.06-6.07zM2 14v2h8v-2z"/></svg>

<!--
  - The MIT License (MIT)
  -
  - Copyright (c) 2015-2024 Elior "Mallowigi" Boukhobza
  -
  - Permission is hereby granted, free of charge, to any person obtaining a copy
  - of this software and associated documentation files (the "Software"), to deal
  - in the Software without restriction, including without limitation the rights
  - to use, copy, modify, merge, publish, distribute, sublicense, and/or sell
  - copies of the Software, and to permit persons to whom the Software is
  - furnished to do so, subject to the following conditions:
  -
  - The above copyright notice and this permission notice shall be included in all
  - copies or substantial portions of the Software.
  -
  - THE SOFTWARE IS PROVIDED "AS IS", WITHOUT WARRANTY OF ANY KIND, EXPRESS OR
  - IMPLIED, INCLUDING BUT NOT LIMITED TO THE WARRANTIES OF MERCHANTABILITY,
  - FITNESS FOR A PARTICULAR PURPOSE AND NONINFRINGEMENT. IN NO EVENT SHALL THE
  - AUTHORS OR COPYRIGHT HOLDERS BE LIABLE FOR ANY CLAIM, DAMAGES OR OTHER
  - LIABILITY, WHETHER IN AN ACTION OF CONTRACT, TORT OR OTHERWISE, ARISING FROM,
  - OUT OF OR IN CONNECTION WITH THE SOFTWARE OR THE USE OR OTHER DEALINGS IN THE
  - SOFTWARE.
  -->


<svg data-big="true" xmlns="http://www.w3.org/2000/svg" version="1.1" width="16px" height="16px" viewBox="0 0 24 24"
     fill="#9575CD">
  <path
    d="M2,6V8H14V6H2M2,10V12H14V10H2M20.04,10.13C19.9,10.13 19.76,10.19 19.65,10.3L18.65,11.3L20.7,13.35L21.7,12.35C21.92,12.14 21.92,11.79 21.7,11.58L20.42,10.3C20.31,10.19 20.18,10.13 20.04,10.13M18.07,11.88L12,17.94V20H14.06L20.12,13.93L18.07,11.88M2,14V16H10V14H2Z"/>
</svg>
